X:1
T:Miletina, 77.77.77 D
T:Miletina, 77.77.77 D
T:Frank Monford Graham, 1914
T:Public Domain Courtesy of the Cyber Hymnal™
C:Frank Monford Graham, 1914
Z:Public Domain
Z:Courtesy of the Cyber Hymnal™
%%score ( 1 2 ) ( 3 4 )
L:1/8
Q:1/4=92
M:2/4
K:G
V:1 treble 
V:2 treble 
V:3 bass 
V:4 bass 
V:1
 [DG]>[DA] | [GB]>[Gd] [Gd]>[Ge] | [Gd]2 [GB]>[FA] | [EG]>[EG] [EG]>[FA] | [GB]2 [GB]>[Gc] | %5
 [Gd]>[Gd] [Gd]>[Ge] | [Gd]2 [Gd]>[Gd] | [GB]>[DA] [DG]>[GB] | [FA]2 [DG]>[DA] | %9
 [GB]>[Gd] [Gd]>[Ge] | [Gd]2 [GB]>[FA] | [EG]>[EG] [EG]>[FA] | [GB]2 [GB]>[Gc] | %13
 [Gd]>[Gd] [Gd]>[Ge] | [Gd]2 [Gd]>[Gd] | [GB]>[DG] [GB]>[DA] | [DG]2 [DG]>[DA] | %17
[M:4/4] B4- [GB]>[FA] [GB]>[DA] | G6 [DG]>[GB] | d4- [Gd]>[GB] (3(BA)G | A6 [DG]>[DA] | %21
 B6- [GB]>[GB][FA]>[_FB] | c6 [Gc]>[Gc] | B6- BA/G<[GB][DA]/ | G6 |] %25
V:2
 x2 | x4 | x4 | x4 | x4 | x4 | x4 | x4 | x4 | x4 | x4 | x4 | x4 | x4 | x4 | x4 | x4 | %17
[M:4/4] G>GG>G x4 | (D>DE>E D2) x2 | (G3/2 G/ G3/2 G/ x/ G2) G x/ | F2 E>E F2 x2 | %21
 G3/2 G/ G3/2 G/ x6 | (E2 E>E E2) x2 | (G>GG>G G>)G x4 | (D>DE>E D2) |] %25
V:3
 [G,B,]>[G,C] | [G,D]>[G,B,] [G,B,]>[G,C] | [G,B,]2 [G,D]>[D,C] | [E,B,]>[E,B,] [E,B,]>[D,C] | %4
 [G,D]2 G,>[G,A,] | [G,B,]>[G,B,] [G,B,]>[G,C] | [G,B,]2 [G,B,]>[G,B,] | [G,D]>[G,C] [G,B,]>[G,D] | %8
 [D,D]2 [G,B,]>[G,C] | [G,D]>[G,B,] [G,B,]>[G,C] | [G,B,]2 [G,D]>[D,C] | %11
 [E,B,]>[E,B,] [E,B,]>[D,C] | [G,D]2 G,>[G,A,] | [G,B,]>[G,B,] [G,B,]>[G,C] | %14
 [G,B,]2 [G,B,]>[G,B,] | [D,D]>[D,B,] [D,D]>[D,C] | [G,B,]2 [G,B,]>[G,C] | %17
[M:4/4] ([G,D]>[G,D] [G,D]>[G,D] [D,D]>)[D,D] [D,D]>[D,C] | %18
 ([G,B,]>[G,B,] [G,C]>[G,C] [G,B,]2) [G,B,]>[G,D] | %19
 ([G,B,]>[G,B,] [G,B,]>[G,B,] [G,B,]>)[G,D] [G,D]>[G,D] | %20
 [D,D]2 [A,,^C]>[A,,C] [D,D]2 [G,B,]>[G,C] | ([G,D]>[G,D] [G,D]>[G,D] [G,D]>)[G,D] [D,D]>G, x2 | %22
 [C,G,]2 [C,G,]>[C,G,] [C,G,]2 [C,E]>[C,E] | ([D,D]>[D,D] [D,D]>[D,D] [D,D]>)[D,D] [D,D]>[D,C] x2 | %24
 (B,>B,C>C B,2) |] %25
V:4
 x2 | x4 | x4 | x4 | x2 G,3/2 x/ | x4 | x4 | x4 | x4 | x4 | x4 | x4 | x2 G,3/2 x/ | x4 | x4 | x4 | %16
 x4 |[M:4/4] x8 | x8 | x8 | x8 | x15/2 G,/ x2 | x8 | x10 | G,6 |] %25

